X:17
T:De Kolom
R:Divers
C:Trad. (Flandres)
Z:J.M HENRY
Z:Transcrit et/ou corrig? par Michel BELLON - 2007-04-27
Z:Pour toute observation mailto:galouvielle@free.fr
M:4/4
L:1/8
Q:1/4=120
K:G
V:1
"D7"D| "G"G2 B2| "G"G3 B|"G"GB dB|"G"G3 B/2B/2|"G"B AA c/2c/2|"C"c BB c|"D7"dc BA|"G"B2 GD|!
"G"G2 B2|"G"G3 B|"G"GB dB|"G"G3 B/2B/2|"G"B AA c/2c/2|"C"c BB c|"D7"dc BA |"G"G2 AB|!
"C"cd/2c/2 BA|"D7"dd AB|"C"cd/2c/2 BA|"G"GG AB|"C"cd/2c/2 BA|"D7"dd AB|"C"cd/2c/2 BA|"G"G3|]
V:2
D | B2d2 | B3B | GB/d/ BB/G/  |  d3e/e/ | ef fe/e/ | eg ge | fe dc | d2 Bd |
B2d2 | B3B | GB/d/ BB/G/ | d3e/e/ | ef fe/e/ | eg ge | fe dc | B2z2 |
gB GF/G/ | A/B/c/d/ ce | GB GF/G/ | B/A/G/F/ z2 | gB GF/G/ | A/B/c/d/ ce | eB GF/G/ | G3 |] 
<end>
<start>
